public/topics/2.svg

<svg width="250" height="250" viewBox="0 0 250 250" fill="none" xmlns="http://www.w3.org/2000/svg">
<rect width="250" height="250" rx="30" fill="#FF5900"/>
<path d="M110.2 174.2C114.733 174.467 117.733 174.6 119.2 174.6C123.733 174.6 127.733 174.533 131.2 174.4C134.8 174.267 137.867 174.133 140.4 174C146.933 173.6 152.8 173.4 158 173.4C163.067 173.4 166.8 174.733 169.2 177.4C171.6 180.067 172.8 183.6 172.8 188C172.8 190.133 171.4 191.867 168.6 193.2C165.8 194.4 162.933 195 160 195C157.467 195 152.2 194.733 144.2 194.2C134.6 193.4 127.067 193 121.6 193C118.667 193 115.2 193.2 111.2 193.6C109.6 193.733 107.667 193.867 105.4 194C103.133 194.133 100.6 194.2 97.8 194.2C92.4667 194.2 88.4 193.467 85.6 192C82.8 190.533 81.4 187.867 81.4 184C81.4 180.667 82.7333 177.267 85.4 173.8C88.0667 170.333 91.8 166.2 96.6 161.4L101.4 156.6C103.533 154.333 107.467 150.467 113.2 145C122.667 136.467 130 128.933 135.2 122.4C140.533 115.867 143.2 109.4 143.2 103C143.2 98.8667 141.2 95.5333 137.2 93C133.333 90.3333 128.867 89 123.8 89C116.067 89 110.467 90.7333 107 94.2C103.667 97.5333 102 102.4 102 108.8C102 110.4 101.067 111.867 99.2 113.2C97.4667 114.4 95.2667 115 92.6 115C88.8667 115 86.2667 113.667 84.8 111C83.3333 108.333 82.6 105.067 82.6 101.2C82.6 95.0667 84.4667 89.6667 88.2 85C91.9333 80.2 97 76.4667 103.4 73.8C109.933 71.1333 117.133 69.8 125 69.8C130.6 69.8 136.4 71.2 142.4 74C148.533 76.6667 153.6 80.3333 157.6 85C161.733 89.5333 163.8 94.5333 163.8 100C163.8 108.267 161.733 116.133 157.6 123.6C153.467 131.067 148.6 137.733 143 143.6C137.533 149.333 130.4 156.133 121.6 164C117.333 167.6 113.533 171 110.2 174.2Z" fill="white"/>
</svg>

<svg xmlns="http://www.w3.org/2000/svg" width="250" height="250" fill="none" viewBox="0 0 250 250"><rect width="250" height="250" fill="#ff5900" rx="30"/><path fill="#fff" d="M110.2 174.2q6.8.4 9 .4 6.8 0 12-.2 5.4-.2 9.2-.4 9.8-.6 17.6-.6 7.6 0 11.2 4t3.6 10.6q0 3.2-4.2 5.2-4.2 1.8-8.6 1.8-3.8 0-15.8-.8-14.4-1.2-22.6-1.2-4.4 0-10.4.6-2.4.2-5.8.4t-7.6.2q-8 0-12.2-2.2t-4.2-8q0-5 4-10.2t11.2-12.4l4.8-4.8q3.2-3.4 11.8-11.6 14.2-12.8 22-22.6 8-9.8 8-19.4 0-6.2-6-10-5.8-4-13.4-4-11.6 0-16.8 5.2-5 5-5 14.6 0 2.4-2.8 4.4-2.6 1.8-6.6 1.8-5.6 0-7.8-4t-2.2-9.8q0-9.2 5.6-16.2 5.6-7.2 15.2-11.2 9.8-4 21.6-4 8.4 0 17.4 4.2 9.2 4 15.2 11 6.2 6.8 6.2 15 0 12.4-6.2 23.6t-14.6 20q-8.2 8.6-21.4 20.4-6.4 5.4-11.4 10.2"/></svg>
